src/assets/outline/MoneyAdd.svg

<?xml version="1.0" encoding="UTF-8"?>
<svg width="24" height="24" viewBox="0 0 24 24" xmlns="http://www.w3.org/2000/svg">
 <path d="m12 15.25c-1.79 0-3.25-1.46-3.25-3.25s1.46-3.25 3.25-3.25 3.25 1.46 3.25 3.25-1.46 3.25-3.25 3.25zm0-5c-0.96 0-1.75 0.79-1.75 1.75s0.79 1.75 1.75 1.75 1.75-0.79 1.75-1.75-0.79-1.75-1.75-1.75z"/>
 <path d="m18.5 15.25c-0.41 0-0.75-0.34-0.75-0.75v-5c0-0.41 0.34-0.75 0.75-0.75s0.75 0.34 0.75 0.75v5c0 0.41-0.34 0.75-0.75 0.75z"/>
 <path d="m5 22.75c-1.66 0-3.22-0.88-4.06-2.31-0.45-0.72-0.69-1.57-0.69-2.44 0-2.62 2.13-4.75 4.75-4.75s4.75 2.13 4.75 4.75c0 0.87-0.24 1.72-0.69 2.45-0.84 1.42-2.4 2.3-4.06 2.3zm0-8c-1.79 0-3.25 1.46-3.25 3.25 0 0.59 0.16 1.17 0.47 1.67 0.58 0.98 1.65 1.58 2.78 1.58s2.2-0.6 2.78-1.57c0.31-0.51 0.47-1.08 0.47-1.68 0-1.79-1.46-3.25-3.25-3.25z"/>
 <path d="m6.4998 18.73h-2.99c-0.41 0-0.75-0.34-0.75-0.75s0.34-0.75 0.75-0.75h2.99c0.41 0 0.75 0.34 0.75 0.75s-0.34 0.75-0.75 0.75z"/>
 <path d="m5 20.26c-0.41 0-0.75-0.34-0.75-0.75v-2.99c0-0.41 0.34-0.75 0.75-0.75s0.75 0.34 0.75 0.75v2.99c0 0.42-0.34 0.75-0.75 0.75z"/>
 <path d="m17 20.75h-8.5c-0.41 0-0.75-0.34-0.75-0.75s0.34-0.75 0.75-0.75h8.5c2.86 0 4.25-1.39 4.25-4.25v-6c0-2.86-1.39-4.25-4.25-4.25h-10c-2.86 0-4.25 1.39-4.25 4.25v6.3c0 0.41-0.34 0.75-0.75 0.75s-0.75-0.34-0.75-0.75v-6.3c0-3.65 2.1-5.75 5.75-5.75h10c3.65 0 5.75 2.1 5.75 5.75v6c0 3.65-2.1 5.75-5.75 5.75z"/>
</svg>

<svg width="24" height="24" viewBox="0 0 24 24"  xmlns="http://www.w3.org/2000/svg">
<path d="M12 15.25C10.21 15.25 8.75 13.79 8.75 12C8.75 10.21 10.21 8.75 12 8.75C13.79 8.75 15.25 10.21 15.25 12C15.25 13.79 13.79 15.25 12 15.25ZM12 10.25C11.04 10.25 10.25 11.04 10.25 12C10.25 12.96 11.04 13.75 12 13.75C12.96 13.75 13.75 12.96 13.75 12C13.75 11.04 12.96 10.25 12 10.25Z" />
<path d="M18.5 15.25C18.09 15.25 17.75 14.91 17.75 14.5V9.5C17.75 9.09 18.09 8.75 18.5 8.75C18.91 8.75 19.25 9.09 19.25 9.5V14.5C19.25 14.91 18.91 15.25 18.5 15.25Z" />
<path d="M5 22.75C3.34 22.75 1.78 21.87 0.940002 20.44C0.490002 19.72 0.25 18.87 0.25 18C0.25 15.38 2.38 13.25 5 13.25C7.62 13.25 9.75 15.38 9.75 18C9.75 18.87 9.51 19.72 9.06 20.45C8.22 21.87 6.66 22.75 5 22.75ZM5 14.75C3.21 14.75 1.75 16.21 1.75 18C1.75 18.59 1.91 19.17 2.22 19.67C2.8 20.65 3.87 21.25 5 21.25C6.13 21.25 7.2 20.65 7.78 19.68C8.09 19.17 8.25 18.6 8.25 18C8.25 16.21 6.79 14.75 5 14.75Z" />
<path d="M6.49976 18.73H3.50977C3.09977 18.73 2.75977 18.39 2.75977 17.98C2.75977 17.57 3.09977 17.23 3.50977 17.23H6.49976C6.90976 17.23 7.24976 17.57 7.24976 17.98C7.24976 18.39 6.90976 18.73 6.49976 18.73Z" />
<path d="M5 20.26C4.59 20.26 4.25 19.92 4.25 19.51V16.52C4.25 16.11 4.59 15.77 5 15.77C5.41 15.77 5.75 16.11 5.75 16.52V19.51C5.75 19.93 5.41 20.26 5 20.26Z" />
<path d="M17 20.75H8.5C8.09 20.75 7.75 20.41 7.75 20C7.75 19.59 8.09 19.25 8.5 19.25H17C19.86 19.25 21.25 17.86 21.25 15V9C21.25 6.14 19.86 4.75 17 4.75H7C4.14 4.75 2.75 6.14 2.75 9V15.3C2.75 15.71 2.41 16.05 2 16.05C1.59 16.05 1.25 15.71 1.25 15.3V9C1.25 5.35 3.35 3.25 7 3.25H17C20.65 3.25 22.75 5.35 22.75 9V15C22.75 18.65 20.65 20.75 17 20.75Z" />
</svg>
